svg/u1f950.svg

<svg viewBox="0 0 128 128" xmlns="http://www.w3.org/2000/svg">
  <path d="M116.86,72.26L87.43,53.07L52.56,78.02l1.28,14.55l13.92,13.44c0,0,2.08,8.8-1.6,11.2 c-3.68,2.4-8.96,4.32-20.79,3.68c-11.84-0.64-15.67-4.64-16.79-5.92c-1.12-1.28-2.88-5.92-2.88-5.92s-9.4-2.15-14.39-9.28 c-4.48-6.4-3.68-12-2.88-14.87c0.8-2.88,2.88-4.64,2.88-4.64l-0.64-1.6c0,0-5.92-2.88-6.72-9.76c-0.8-6.88,2.24-16.95,7.52-24.47 s6.88-6.72,6.88-6.72s-2.24-1.28-1.6-6.88c0.64-5.6,8.64-12.16,16.31-16.95s13.31-7.39,18.91-6.43s7.57,3.98,7.57,3.98 s8.39-5.55,18.62-3.47s15.03,9.12,15.83,10.56s2.08,1.12,2.08,1.12s4-1.12,10.56,2.24c6.56,3.36,8.8,10.08,9.28,12 s1.12,5.44,1.12,5.44s2.87,1.96,4.84,6.4c2.56,5.76,3,12.32,1.56,19.04c-1.41,6.6-2.72,8.64-2.72,8.64L116.86,72.26z" fill="#F6AF3D"/>
  <path d="M26.64,26.01c2.09,2.79,5.45,0.54,9.37-2.61s6.32-5.45,4.36-7.62s-6.97,1.09-9.59,3.05 C28.17,20.78,24.68,23.39,26.64,26.01z" fill="#F9E0CA"/>
  <path d="M18.04,83.77c-2,0-2.87,2.37-2.87,4.49c0,2.12,0,4.24,2.24,4.36c1.75,0.1,2.87-1.12,2.99-4.49 C20.53,85.01,19.79,83.77,18.04,83.77z" fill="#F9E0CA"/>
  <radialGradient id="SVGID_1_" cx="65.9655" cy="97.5914" gradientUnits="userSpaceOnUse" r="38.9862">
    <stop offset="0.34" stop-color="#E07F16"/>
    <stop offset="0.8206" stop-color="#E07F16" stop-opacity="0"/>
  </radialGradient>
  <path d="M62.3,100.74l-1.92,0.77l-10.25-1.76l-10.55,1.39l-7.01,2.97 c-2.44,5.54,3.34,16.26,12.79,16.77c11.84,0.64,17.11-1.28,20.79-3.68c3.68-2.4,1.6-11.2,1.6-11.2L62.3,100.74z" fill="url(#SVGID_1_)"/>
  <radialGradient id="SVGID_2_" cx="54.1244" cy="64.9331" gradientUnits="userSpaceOnUse" r="31.2005">
    <stop offset="0.2542" stop-color="#E07F16"/>
    <stop offset="1" stop-color="#E07F16" stop-opacity="0"/>
  </radialGradient>
  <path d="M55.95,86.25l6.27-17.29L47.78,47.87l-13.3-7.6c0,0-7.07,4.28-10.26,12.73 c-3.8,10.07-0.19,21.66-0.19,21.66l17.51,2.28L55.95,86.25z" fill="url(#SVGID_2_)"/>
  <radialGradient id="SVGID_3_" cx="50.2358" cy="22.1595" gradientTransform="matrix(0.5812 0.8137 -1.853 1.3236 62.099 -48.0492)" gradientUnits="userSpaceOnUse" r="37.917">
    <stop offset="0.2434" stop-color="#E07F16" stop-opacity="0"/>
    <stop offset="0.9239" stop-color="#E07F16"/>
  </radialGradient>
  <path d="M56.71,58.32L44.93,44.64L26.42,35.6c0,0,20.51-3.45,30.01-8.39s9.36-13.39,9.36-13.39 l10.49,11.81l6.46,15.77l1.71,15.01l-21.66,6.84l-4.75-0.95L56.71,58.32z" fill="url(#SVGID_3_)"/>
  <radialGradient id="SVGID_4_" cx="85.2266" cy="5.9535" gradientTransform="matrix(0.2807 0.9598 -1.2569 0.3676 68.7842 -78.0347)" gradientUnits="userSpaceOnUse" r="53.4662">
    <stop offset="0.31" stop-color="#E07F16" stop-opacity="0"/>
    <stop offset="0.6003" stop-color="#E07F16"/>
  </radialGradient>
  <path d="M68.04,16.4c0,0,5.8-2.3,13.71-0.81c9.39,1.77,16.78,6.78,16.78,6.78l4.05,14.66l-1.22,13.3 l-4.18,6.84L84.45,53l-2.09-15.2l-6.27-10.83L68.04,16.4z" fill="url(#SVGID_4_)"/>
  <radialGradient id="SVGID_5_" cx="68.084" cy="86.8219" gradientUnits="userSpaceOnUse" r="43.4985">
    <stop offset="0.4542" stop-color="#E07F16"/>
    <stop offset="0.9133" stop-color="#E07F16" stop-opacity="0"/>
  </radialGradient>
  <path d="M24.81,89.49c1.94,12.13,9.29,14.05,9.29,14.05l12.35-3.61l9.12,1.14l-4.94-20.9L34.1,74.85 C34.1,74.85,22.53,75.24,24.81,89.49z" fill="url(#SVGID_5_)"/>
  <path d="M23.81,44.2c-4.77-2.62-9.41,5.2-11,8.06c-1.63,2.94-2.47,11.09,0.11,11.87 c2.51,0.76,3.8-4.84,6.1-7.84C22.61,51.6,29.37,47.25,23.81,44.2z" fill="#F9E0CA"/>
  <radialGradient id="SVGID_6_" cx="95.2023" cy="57.6924" gradientUnits="userSpaceOnUse" r="38.4338">
    <stop offset="0.5852" stop-color="#E07F16"/>
    <stop offset="1" stop-color="#E07F16" stop-opacity="0"/>
  </radialGradient>
  <path d="M97.1,59.37l9.13,5.95l5.84-5.86l4.22-11.93l0.74-8.23c0,0-0.64-3.52-1.12-5.44 c-0.48-1.92-2.76-8.57-9.28-12c-5.32-2.8-9.34-2.52-10.63-2.35l6.59,17.51l-2.5,14.43L97.1,59.37z" fill="url(#SVGID_6_)"/>
  <radialGradient id="SVGID_7_" cx="113.4844" cy="68.6042" gradientUnits="userSpaceOnUse" r="35.3401">
    <stop offset="0.0984" stop-color="#E07F16"/>
    <stop offset="0.7591" stop-color="#E07F16" stop-opacity="0.1251"/>
    <stop offset="0.8536" stop-color="#E07F16" stop-opacity="0"/>
  </radialGradient>
  <path d="M121.86,45.71c-1.65-3.75-4.06-5.83-4.83-6.38l-0.74,8.22l-3.71,13.23l-6.12,4.7l10.41,6.79 l3.84,1.12c0,0,1.3-2.04,2.72-8.64C124.86,58.02,124.4,51.47,121.86,45.71z" fill="url(#SVGID_7_)"/>
  <path d="M54.5,56.56c0,0,7.82,4.4,18.01-4.33c7.53-6.46,8.86-13.01,8.86-13.01s3.31,6.75,9.79,9.13 c6.48,2.38,10.59,0,10.59,0s0.13,5.16,3.71,8.34c3.57,3.18,6.62,2.78,6.62,2.78s-1.19,6.35,3.18,8.87c4.37,2.51,6.75,1.72,6.75,1.72 s-1.85,9.7-8.2,9.79c-9.53,0.13-10.32-12.31-10.32-12.31s-2.65-0.4-4.5-1.19s-3.71-1.99-3.71-1.99s-2.78,1.19-5.03,1.46 c-2.25,0.26-5.29-0.53-5.29-0.53s-1.46,5.29-7.41,10.06s-13.1,6.09-13.1,6.09s0.66,2.51-0.53,5.56c-1.04,2.65-3.97,5.43-3.97,5.43 s1.59,1.06,2.38,3.18c0.79,2.12,0.79,4.5,0.79,4.5s6.8,1.41,8.2,7.15c1.59,6.48-5.69,10.45-5.69,10.45s3-6.31-0.26-11.12 c-4.76-7.01-17.07-7.15-17.07-7.15s0.93-5.29-0.13-10.32s-6.62-12.17-6.62-12.17s4.9-1.59,8.6-7.54S54.5,56.56,54.5,56.56z" fill="#CF7118"/>
  <radialGradient id="SVGID_8_" cx="7.8258" cy="80.576" gradientUnits="userSpaceOnUse" r="30.5238">
    <stop offset="0.3534" stop-color="#F8C975"/>
    <stop offset="0.5077" stop-color="#F9C368"/>
    <stop offset="0.7939" stop-color="#FCB445"/>
    <stop offset="1" stop-color="#FFA828"/>
  </radialGradient>
  <path d="M59.89,92.03c-0.96,2.32-7.95-13.75-26.14-13.87S9.3,82.79,9.3,82.79s0.56-1.67,0.59-2.58 c0.03-0.91-0.08-2.05-0.08-2.05s5.3-5.72,17.62-6.01c11.71-0.28,20.42,2.16,26.4,8.27C59.82,86.52,60.46,90.66,59.89,92.03z" fill="url(#SVGID_8_)"/>
  <radialGradient id="SVGID_9_" cx="21.4922" cy="111.2997" gradientUnits="userSpaceOnUse" r="26.6989">
    <stop offset="0.3534" stop-color="#F8C975"/>
    <stop offset="0.5077" stop-color="#F9C368"/>
    <stop offset="0.7939" stop-color="#FCB445"/>
    <stop offset="1" stop-color="#FFA828"/>
  </radialGradient>
  <path d="M60.38,101.52c-0.13,2.2-8.1-1.04-19.1,1.85c-11,2.89-14.7,8.45-14.7,8.45 s-0.67-1.24-1.32-2.05c-0.65-0.81-2.04-1.77-2.04-1.77s5.33-7.18,16.9-9.26S60.5,99.55,60.38,101.52z" fill="url(#SVGID_9_)"/>
  <radialGradient id="SVGID_10_" cx="12.4154" cy="35.9561" gradientUnits="userSpaceOnUse" r="44.5818">
    <stop offset="0.2213" stop-color="#F8C975"/>
    <stop offset="0.5351" stop-color="#FBBA53"/>
    <stop offset="0.8806" stop-color="#FFA828"/>
  </radialGradient>
  <path d="M16.67,34.01c0,0,0.19,1.42-0.04,2.8c-0.23,1.39-0.72,2.25-0.72,2.25s13.79,0.39,22.94,6.76 S55.4,61.11,58.88,68.06s3.24,12.04,4.86,11.35s1.16-9.26-3.24-17.37S48.46,43.17,37.11,38.42S16.67,34.01,16.67,34.01z" fill="url(#SVGID_10_)"/>
  <radialGradient id="SVGID_11_" cx="61.465" cy="9.7985" gradientUnits="userSpaceOnUse" r="36.3527">
    <stop offset="0.3534" stop-color="#F8C975"/>
    <stop offset="0.5077" stop-color="#F9C368"/>
    <stop offset="0.7939" stop-color="#FCB445"/>
    <stop offset="1" stop-color="#FFA828"/>
  </radialGradient>
  <path d="M59.76,11.35c-0.29,0.78,10.85,8.82,16.11,19.06c5.26,10.25,6.35,20.5,6.98,25.58 c0.63,5.08,0.27,8.71,1.72,8.34c1.45-0.36,1.77-3.81,2.18-11.06c0.45-8.16-2.76-18.47-6.8-25.67c-4.13-7.35-11.22-13.62-15.87-15.72 C62.04,10.96,60.11,10.39,59.76,11.35z" fill="url(#SVGID_11_)"/>
  <radialGradient id="SVGID_12_" cx="94.0646" cy="17.1753" gradientUnits="userSpaceOnUse" r="27.2645">
    <stop offset="0.3534" stop-color="#F8C975"/>
    <stop offset="0.5077" stop-color="#F9C368"/>
    <stop offset="0.7939" stop-color="#FCB445"/>
    <stop offset="1" stop-color="#FFA828"/>
  </radialGradient>
  <path d="M94.49,19.24c-0.36,0.42,6.11,7.81,5.77,20.51c-0.31,11.9-5.62,22.31-4.72,22.67 c0.91,0.36,2.72-1.72,5.26-7.07s4.81-13.7,3.36-21.77c-1.08-6.02-4.05-11.45-6.56-13.28C96.75,19.68,94.94,18.71,94.49,19.24z" fill="url(#SVGID_12_)"/>
  <radialGradient id="SVGID_13_" cx="116.9937" cy="34.3412" gradientUnits="userSpaceOnUse" r="19.5523">
    <stop offset="0.3534" stop-color="#F8C975"/>
    <stop offset="0.5077" stop-color="#F9C368"/>
    <stop offset="0.7939" stop-color="#FCB445"/>
    <stop offset="1" stop-color="#FFA828"/>
  </radialGradient>
  <path d="M104.98,66.6c0.73,1.22,7.3-1.53,10.47-8.52c3.17-6.98,3.18-16.91,1.39-16.78 c-0.93,0.07-0.98,7.61-5.24,16.22C108.8,63.18,104.7,66.15,104.98,66.6z" fill="url(#SVGID_13_)"/>
</svg>

<svg viewBox="0 0 128 128" xmlns="http://www.w3.org/2000/svg">
  <defs>
    <radialGradient id="SVGID_1_" cx="65.9655" cy="97.5914" gradientUnits="userSpaceOnUse" r="38.9862">
      <stop offset="0.34" stop-color="#E07F16"/>
      <stop offset="0.8206" stop-color="#E07F16" stop-opacity="0"/>
    </radialGradient>
    <radialGradient id="SVGID_2_" cx="54.1244" cy="64.9331" gradientUnits="userSpaceOnUse" r="31.2005">
      <stop offset="0.2542" stop-color="#E07F16"/>
      <stop offset="1" stop-color="#E07F16" stop-opacity="0"/>
    </radialGradient>
    <radialGradient id="SVGID_3_" cx="47.231521" cy="-12.295485" gradientTransform="matrix(0.5812 0.8137 -1.853 1.3236 0 0)" gradientUnits="userSpaceOnUse" r="37.917">
      <stop offset="0.2434" stop-color="#E07F16" stop-opacity="0"/>
      <stop offset="0.9239" stop-color="#E07F16"/>
    </radialGradient>
    <radialGradient id="SVGID_4_" cx="29.637809" cy="-61.186267" gradientTransform="matrix(0.2807 0.9598 -1.2569 0.3676 0 0)" gradientUnits="userSpaceOnUse" r="53.4662">
      <stop offset="0.31" stop-color="#E07F16" stop-opacity="0"/>
      <stop offset="0.6003" stop-color="#E07F16"/>
    </radialGradient>
    <radialGradient id="SVGID_5_" cx="68.084" cy="86.8219" gradientUnits="userSpaceOnUse" r="43.4985">
      <stop offset="0.4542" stop-color="#E07F16"/>
      <stop offset="0.9133" stop-color="#E07F16" stop-opacity="0"/>
    </radialGradient>
    <radialGradient id="SVGID_6_" cx="95.2023" cy="57.6924" gradientUnits="userSpaceOnUse" r="38.4338">
      <stop offset="0.5852" stop-color="#E07F16"/>
      <stop offset="1" stop-color="#E07F16" stop-opacity="0"/>
    </radialGradient>
    <radialGradient id="SVGID_7_" cx="113.4844" cy="68.6042" gradientUnits="userSpaceOnUse" r="35.3401">
      <stop offset="0.0984" stop-color="#E07F16"/>
      <stop offset="0.7591" stop-color="#E07F16" stop-opacity="0.1251"/>
      <stop offset="0.8536" stop-color="#E07F16" stop-opacity="0"/>
    </radialGradient>
    <radialGradient id="SVGID_8_" cx="7.8258" cy="80.576" gradientUnits="userSpaceOnUse" r="30.5238">
      <stop offset="0.3534" stop-color="#F8C975"/>
      <stop offset="0.5077" stop-color="#F9C368"/>
      <stop offset="0.7939" stop-color="#FCB445"/>
      <stop offset="1" stop-color="#FFA828"/>
    </radialGradient>
    <radialGradient id="SVGID_9_" cx="21.4922" cy="111.2997" gradientUnits="userSpaceOnUse" r="26.6989">
      <stop offset="0.3534" stop-color="#F8C975"/>
      <stop offset="0.5077" stop-color="#F9C368"/>
      <stop offset="0.7939" stop-color="#FCB445"/>
      <stop offset="1" stop-color="#FFA828"/>
    </radialGradient>
    <radialGradient id="SVGID_10_" cx="12.4154" cy="35.9561" gradientUnits="userSpaceOnUse" r="44.5818">
      <stop offset="0.2213" stop-color="#F8C975"/>
      <stop offset="0.5351" stop-color="#FBBA53"/>
      <stop offset="0.8806" stop-color="#FFA828"/>
    </radialGradient>
    <radialGradient id="SVGID_11_" cx="61.465" cy="9.7985" gradientUnits="userSpaceOnUse" r="36.3527">
      <stop offset="0.3534" stop-color="#F8C975"/>
      <stop offset="0.5077" stop-color="#F9C368"/>
      <stop offset="0.7939" stop-color="#FCB445"/>
      <stop offset="1" stop-color="#FFA828"/>
    </radialGradient>
    <radialGradient id="SVGID_12_" cx="94.0646" cy="17.1753" gradientUnits="userSpaceOnUse" r="27.2645">
      <stop offset="0.3534" stop-color="#F8C975"/>
      <stop offset="0.5077" stop-color="#F9C368"/>
      <stop offset="0.7939" stop-color="#FCB445"/>
      <stop offset="1" stop-color="#FFA828"/>
    </radialGradient>
    <radialGradient id="SVGID_13_" cx="116.9937" cy="34.3412" gradientUnits="userSpaceOnUse" r="19.5523">
      <stop offset="0.3534" stop-color="#F8C975"/>
      <stop offset="0.5077" stop-color="#F9C368"/>
      <stop offset="0.7939" stop-color="#FCB445"/>
      <stop offset="1" stop-color="#FFA828"/>
    </radialGradient>
  </defs>
  <path d="M116.86,72.26 L87.43,53.07 L52.56,78.02 L53.84,92.57 L67.76,106.01 C67.76,106.01 69.84,114.81 66.16,117.21 C62.48,119.61 57.2,121.53 45.37,120.89 C33.53,120.25 29.7,116.25 28.58,114.97 C27.46,113.69 25.7,109.05 25.7,109.05 C25.7,109.05 16.3,106.9 11.31,99.77 C6.83,93.37 7.63,87.77 8.43,84.9 C9.23,82.02 11.31,80.26 11.31,80.26 L10.67,78.66 C10.67,78.66 4.75,75.78 3.95,68.9 C3.15,62.02 6.19,51.95 11.47,44.43 C16.75,36.91 18.35,37.71 18.35,37.71 C18.35,37.71 16.11,36.43 16.75,30.83 C17.39,25.23 25.39,18.67 33.06,13.88 C40.73,9.09 46.37,6.49 51.97,7.45 C57.57,8.41 59.54,11.43 59.54,11.43 C59.54,11.43 67.93,5.88 78.16,7.96 C88.39,10.04 93.19,17.08 93.99,18.52 C94.79,19.96 96.07,19.64 96.07,19.64 C96.07,19.64 100.07,18.52 106.63,21.88 C113.19,25.24 115.43,31.96 115.91,33.88 C116.39,35.8 117.03,39.32 117.03,39.32 C117.03,39.32 119.9,41.28 121.87,45.72 C124.43,51.48 124.87,58.04 123.43,64.76 C122.02,71.36 120.71,73.4 120.71,73.4 L116.86,72.26 Z" fill="#F6AF3D"/>
  <path d="M26.64,26.01 C28.73,28.8 32.09,26.55 36.01,23.4 C39.93,20.25 42.33,17.95 40.37,15.78 C38.41,13.61 33.4,16.87 30.78,18.83 C28.17,20.78 24.68,23.39 26.64,26.01 Z" fill="#F9E0CA"/>
  <path d="M18.04,83.77 C16.04,83.77 15.17,86.14 15.17,88.26 C15.17,90.38 15.17,92.5 17.41,92.62 C19.16,92.72 20.28,91.5 20.4,88.13 C20.53,85.01 19.79,83.77 18.04,83.77 Z" fill="#F9E0CA"/>
  <path d="M62.3,100.74 L60.38,101.51 L50.13,99.75 L39.58,101.14 L32.57,104.11 C30.13,109.65 35.91,120.37 45.36,120.88 C57.2,121.52 62.47,119.6 66.15,117.2 C69.83,114.8 67.75,106 67.75,106 L62.3,100.74 Z" fill="url(#SVGID_1_)"/>
  <path d="M55.95,86.25 L62.22,68.96 L47.78,47.87 L34.48,40.27 C34.48,40.27 27.41,44.55 24.22,53 C20.42,63.07 24.03,74.66 24.03,74.66 L41.54,76.94 L55.95,86.25 Z" fill="url(#SVGID_2_)"/>
  <path d="M56.71,58.32 L44.93,44.64 L26.42,35.6 C26.42,35.6 46.93,32.15 56.43,27.21 C65.93,22.27 65.79,13.82 65.79,13.82 L76.28,25.63 L82.74,41.4 L84.45,56.41 L62.79,63.25 L58.04,62.3 L56.71,58.32 Z" fill="url(#SVGID_3_)"/>
  <path d="M68.04,16.4 C68.04,16.4 73.84,14.1 81.75,15.59 C91.14,17.36 98.53,22.37 98.53,22.37 L102.58,37.03 L101.36,50.33 L97.18,57.17 L84.45,53 L82.36,37.8 L76.09,26.97 L68.04,16.4 Z" fill="url(#SVGID_4_)"/>
  <path d="M24.81,89.49 C26.75,101.62 34.1,103.54 34.1,103.54 L46.45,99.93 L55.57,101.07 L50.63,80.17 L34.1,74.85 C34.1,74.85 22.53,75.24 24.81,89.49 Z" fill="url(#SVGID_5_)"/>
  <path d="M23.81,44.2 C19.04,41.58 14.4,49.4 12.81,52.26 C11.18,55.2 10.34,63.35 12.92,64.13 C15.43,64.89 16.72,59.29 19.02,56.29 C22.61,51.6 29.37,47.25 23.81,44.2 Z" fill="#F9E0CA"/>
  <path d="M97.1,59.37 L106.23,65.32 L112.07,59.46 L116.29,47.53 L117.03,39.3 C117.03,39.3 116.39,35.78 115.91,33.86 C115.43,31.94 113.15,25.29 106.63,21.86 C101.31,19.06 97.29,19.34 96,19.51 L102.59,37.02 L100.09,51.45 L97.1,59.37 Z" fill="url(#SVGID_6_)"/>
  <path d="M121.86,45.71 C120.21,41.96 117.8,39.88 117.03,39.33 L116.29,47.55 L112.58,60.78 L106.46,65.48 L116.87,72.27 L120.71,73.39 C120.71,73.39 122.01,71.35 123.43,64.75 C124.86,58.02 124.4,51.47 121.86,45.71 Z" fill="url(#SVGID_7_)"/>
  <path d="M54.5,56.56 C54.5,56.56 62.32,60.96 72.51,52.23 C80.04,45.77 81.37,39.22 81.37,39.22 C81.37,39.22 84.68,45.97 91.16,48.35 C97.64,50.73 101.75,48.35 101.75,48.35 C101.75,48.35 101.88,53.51 105.46,56.69 C109.03,59.87 112.08,59.47 112.08,59.47 C112.08,59.47 110.89,65.82 115.26,68.34 C119.63,70.85 122.01,70.06 122.01,70.06 C122.01,70.06 120.16,79.76 113.81,79.85 C104.28,79.98 103.49,67.54 103.49,67.54 C103.49,67.54 100.84,67.14 98.99,66.35 C97.14,65.56 95.28,64.36 95.28,64.36 C95.28,64.36 92.5,65.55 90.25,65.82 C88,66.08 84.96,65.29 84.96,65.29 C84.96,65.29 83.5,70.58 77.55,75.35 C71.6,80.12 64.45,81.44 64.45,81.44 C64.45,81.44 65.11,83.95 63.92,87 C62.88,89.65 59.95,92.43 59.95,92.43 C59.95,92.43 61.54,93.49 62.33,95.61 C63.12,97.73 63.12,100.11 63.12,100.11 C63.12,100.11 69.92,101.52 71.32,107.26 C72.91,113.74 65.63,117.71 65.63,117.71 C65.63,117.71 68.63,111.4 65.37,106.59 C60.61,99.58 48.3,99.44 48.3,99.44 C48.3,99.44 49.23,94.15 48.17,89.12 C47.11,84.09 41.55,76.95 41.55,76.95 C41.55,76.95 46.45,75.36 50.15,69.41 C53.85,63.46 54.5,56.56 54.5,56.56 Z" fill="#CF7118"/>
  <path d="M59.89,92.03 C58.93,94.35 51.94,78.28 33.75,78.16 C15.56,78.04 9.3,82.79 9.3,82.79 C9.3,82.79 9.86,81.12 9.89,80.21 C9.92,79.3 9.81,78.16 9.81,78.16 C9.81,78.16 15.11,72.44 27.43,72.15 C39.14,71.87 47.85,74.31 53.83,80.42 C59.82,86.52 60.46,90.66 59.89,92.03 Z" fill="url(#SVGID_8_)"/>
  <path d="M60.38,101.52 C60.25,103.72 52.28,100.48 41.28,103.37 C30.28,106.26 26.58,111.82 26.58,111.82 C26.58,111.82 25.91,110.58 25.26,109.77 C24.61,108.96 23.22,108 23.22,108 C23.22,108 28.55,100.82 40.12,98.74 C51.69,96.66 60.5,99.55 60.38,101.52 Z" fill="url(#SVGID_9_)"/>
  <path d="M16.67,34.01 C16.67,34.01 16.86,35.43 16.63,36.81 C16.4,38.2 15.91,39.06 15.91,39.06 C15.91,39.06 29.7,39.45 38.85,45.82 C48,52.19 55.4,61.11 58.88,68.06 C62.36,75.01 62.12,80.1 63.74,79.41 C65.36,78.72 64.9,70.15 60.5,62.04 C56.1,53.93 48.46,43.17 37.11,38.42 C25.76,33.67 16.67,34.01 16.67,34.01 Z" fill="url(#SVGID_10_)"/>
  <path d="M59.76,11.35 C59.47,12.13 70.61,20.17 75.87,30.41 C81.13,40.66 82.22,50.91 82.85,55.99 C83.48,61.07 83.12,64.7 84.57,64.33 C86.02,63.97 86.34,60.52 86.75,53.27 C87.2,45.11 83.99,34.8 79.95,27.6 C75.82,20.25 68.73,13.98 64.08,11.88 C62.04,10.96 60.11,10.39 59.76,11.35 Z" fill="url(#SVGID_11_)"/>
  <path d="M94.49,19.24 C94.13,19.66 100.6,27.05 100.26,39.75 C99.95,51.65 94.64,62.06 95.54,62.42 C96.45,62.78 98.26,60.7 100.8,55.35 C103.34,50 105.61,41.65 104.16,33.58 C103.08,27.56 100.11,22.13 97.6,20.3 C96.75,19.68 94.94,18.71 94.49,19.24 Z" fill="url(#SVGID_12_)"/>
  <path d="M104.98,66.6 C105.71,67.82 112.28,65.07 115.45,58.08 C118.62,51.1 118.63,41.17 116.84,41.3 C115.91,41.37 115.86,48.91 111.6,57.52 C108.8,63.18 104.7,66.15 104.98,66.6 Z" fill="url(#SVGID_13_)"/>
</svg>
